X:447
T:Jolly Breeze,The. (p).1701.PLFD.447
M:4/4
L:1/16
Q:1/2=50
S:Playford, Dancing Master,11th Ed.,1701.
O:England
Z:Chris Partington.
K:G
D2|G2D2G2B2d4c2B2|A2D2F2A2c6d2|B3A (GA)(GA) (Bc)(Bc) d2B2|
(cB)(AG) (AG)(FE)F6A2|BcBA GAGF EFED ^C2E2|
|[1AGF2 F2EDD6:|[2AGF2 F2EDD4|:A2B2|c2Bc A2dc B2AB G2cB|
A2GA F2BA G2FG E2AB|cBAG AGFE^D4B,4|EFEF G2E2 FGFG A2F2|
GAGA B2G2 ABAB c2A2|B2cB AGFE E6B2|edc2 dcBd cBA2 BAGB|
A2F2G2A2F4DEFD|G2FG EFGE A2GA FGAF|
B2AB GABG c2Bc ABcA|d2ed cBAGG6F2|G4G4:|
